X:1
T:Jackie Coleman's
C:Jackie Coleman
R:reel
M:4/4
L:1/8
K:D
AF~F2 EDB,D|F2AF BFAF|E2BE dEBE|ABde fedB|
AF~F2 EDB,D|F2AF BFAF|E2BE dEBE|1 ABde fddB:|2 ABde fdde|]
fddc d2de|fddc dfaf|eA~A2 gAfA|eA~A2 cdeg|
fddc d2de|fddc dfaf|g2gf gbag|1 fgeg fdde:|2 fgeg fedB|]
</abc>
